!!!OTL: AUF GLUECK AUF MEIN DEUTSCHLAND
!!!ARE: Europa, Mitteleuropa, Oesterreich
!!!SCT: Z0187
!!!YEM: Copyright 1995, estate of Helmut Schaffrath.
**kern
*ICvox
*Ivox
*M4/4
*k[]
*C:
=1
{4.c
8e
4.g
8e
=2
2c
4.c}
{8c
=3
4.d
8c
4.d
8e
=4
2c
2r}
=5
{4e
4e
8f
8e
8d
8c
=6
4f
4g
2a}
=7
{4.g
8a
8g
8f
8f
8e
=8
4e
2d
4r}
=9
{4e
4e
8f
8e
8d
8c
=10
4f
4g
2a}
=11
{4.cc
8a
8g
8f
8e
8d
=12
2c
2r}
==
!!!AGN: Soldaten - Lied, patriotisch
!!!ONB: ESAC (Essen Associative Code) Database: ZUCCAL
!!!AMT: simple quadruple
!!!AIN: vox
!!!EED: Helmut Schaffrath
!!!EEV: 1.0
*-
